src/assets/icons/publictransport/svgmap/nvvLegendeRegioTram.svg

<?xml version="1.0" encoding="UTF-8"?>
<svg width="25px" height="25px" viewBox="0 0 25 25" version="1.1" xmlns="http://www.w3.org/2000/svg" xmlns:xlink="http://www.w3.org/1999/xlink">
    <title>Verkehr/NVV/nvvLegendeRegioTram</title>
    <g id="Assets" stroke="none" stroke-width="1" fill="none" fill-rule="evenodd">
        <g id="Tram-NVV" transform="translate(0.000000, 0.000000)">
            <rect id="Rectangle" x="0" y="0" width="25" height="25"></rect>
            <g id="Clipped">
                <circle id="Oval" fill="#C1001F" cx="12.4999864" cy="12.4999922" r="12.5000015"></circle>
                <path d="M11.8097922,7.81506575 C12.5175803,8.55058485 12.8411517,10.2816983 12.1455445,11.3575051 C11.770917,11.9366162 11.1618719,12.2603172 10.3553408,12.4763338 C10.5942938,12.6419422 10.8913004,12.7126951 11.1012266,12.9240467 C11.6549393,13.4819061 11.8504816,14.5087302 12.1080947,15.4226865 C12.3394578,16.2435089 12.6093787,17.0545253 12.778478,17.7625439 L12.8539805,18.1075386 L9.79605597,18.1075386 C9.61528621,17.5021219 9.38669994,16.7180087 9.16200119,15.8700107 C8.90953365,14.918259 8.82320457,13.7572871 7.67673123,13.7071281 L7.52107828,13.7069936 L7.52107828,18.1075386 L4.50047394,18.1075386 L4.50073311,6.92002867 L4.5998073,6.92038847 L4.63395136,6.92049507 L4.63395136,6.92049507 L5.74044887,6.92084882 C5.8526046,6.92057427 5.96770903,6.92018542 6.08362961,6.9196518 L6.43170728,6.91758614 C6.77796834,6.91502523 7.11238195,6.9108871 7.37736957,6.904349 C9.18014295,6.85990167 10.9252514,6.89553728 11.8097922,7.81506575 Z M21.1324579,6.91989909 L21.1324579,9.19474719 L21.1324579,9.19474719 L18.7085882,9.19474719 L18.7085882,9.19474719 L18.7085882,18.1075386 L18.7085882,18.1075386 L15.6879838,18.1075386 L15.6879838,18.1075386 L15.6879838,9.19474719 L15.6879838,9.19474719 L13.3013047,9.19474719 L13.3013047,9.19474719 L13.3013047,7.03173013 C13.2980651,6.97898942 13.2950847,6.92611912 13.3386249,6.91989909 L13.3386249,6.91989909 L21.1324579,6.91989909 L21.1324579,6.91989909 Z M7.64206316,9.08101036 L7.44643787,9.08304573 L7.44643787,11.5443653 C7.98485962,11.5443653 8.32501777,11.6257441 8.71428827,11.5070451 C9.61230578,11.2331044 9.73217103,9.88491187 9.12468098,9.34402802 C8.79659771,9.05211048 8.28184914,9.07205144 7.64206316,9.08101036 Z" id="Combined-Shape" fill="#FFFFFF"></path>
            </g>
        </g>
    </g>
</svg>

<svg xmlns="http://www.w3.org/2000/svg" width="25" height="25" viewBox="0 0 25 25">
  <g fill="none" fill-rule="evenodd">
    <path d="M0 0h25v25H0z"/>
    <circle cx="12.5" cy="12.5" r="12.5" fill="#C1001F"/>
    <path fill="#FFF" d="M11.8098 7.815c.7078.7356 1.0314 2.4667.3357 3.5425-.3746.5791-.9836.9028-1.7902 1.1188.239.1656.536.2364.746.4477.5536.558.7492 1.5847 1.0068 2.4987.2314.8208.5013 1.6318.6704 2.3398l.0755.345H9.796c-.1807-.6054-.4093-1.3895-.634-2.2375-.2525-.9517-.3388-2.1127-1.4853-2.1629l-.1556-.0001v4.4005H4.5005L4.5007 6.92l.0991.0004.0342.0001 1.1064.0003c.1122-.0002.2273-.0006.3432-.0011l.3481-.0021c.3463-.0026.6807-.0067.9457-.0133 1.8027-.0444 3.5479-.0088 4.4324.9108Zm9.3227-.8951v2.2748h-2.424v8.9128H15.688V9.1947h-2.3867v-2.163c-.0032-.0527-.0062-.1056.0373-.1118h7.7939ZM7.642 9.081l-.1957.002v2.4614c.5385 0 .8786.0813 1.2679-.0374.898-.2739 1.0179-1.622.4104-2.163-.3281-.2919-.8429-.272-1.4826-.263Z"/>
  </g>
</svg>
